X: 152
T: Da qiuqian
%%abc-version 2.0
%%abcx-abcm2ps-target-version 5.9.1 (29 Sep 2008)
%%abc-creator hum2abc beta
%%abcx-conversion-date 2013/10/02 07:52:29
%%abc-edited-by Helmut Schaffrath
%%humdrum-veritas 3865094737
%%humdrum-veritas-data 3360981601
%%continueall 1
%%barnumbers 0
L: 1/8
M: 3/4
K: E
c ^Bc2- [I:setbarnb 1]| 
c^B2c | 
c ^B c =B | 
c ^AB4 | 
[M:2/4]GB2c | 
G B G F | 
G> F G3/ F/ | 
C2E2 | 
[M:3/4]E> CB,4 | 
[M:2/4]E> CE2- | 
E^B2c | 
^B c B c | 
d> c d c | 
^B c B c | 
^B c=B2 | 
^B c B c | 
^B c=B2 | 
^B cB2 | 
G cB2 | 
^B c B c | 
^B c=B2 | 
GB2c | 
G B G F | 
G> F G F | 
C2E2 | 
E> CB,2 | 
F CE2 | 
D> CE2 | 
G G F G | 
e CE4 |]  



